X:1
T:Ravelrigg Rock  "CYMRU"
M:C|
L:1/8
Q:80
C:R Mathieson
S:Hornpipe
K:HP
|: | A{gAGAG}A/2{g}B/2{g}c3/4B/4c3/4d/4 | \
{gef}e{A}e/2f/2{a}g3/4e/4{g}d3/4B/4 | \
{g}G3/4{d}G/4G3/4A/4{g}B3/4A/4{g}B/4d3/4 |
{gef}e3/4d/4g3/4e/4{g}d3/4B/4{g}G3/4{d}B/4 | | \
{g}G3/4{d}c/4{g}B/2{d}G/2{g}A3/4{d}A/4{e}A3/4B/4 | \
{g}c3/4B/4c3/4d/4{g}e3/4f/4{a}g3/4e/4 |
{g}((3d/2c/2B/2)G/2A/2B3/4d/4{g}e3/4d/4 | \
g3/4e/4{g}d3/4B/4{GAG}A2 :: \
((3e/2f/2g/2) |
a{g}a/2g/2{a}e3/4c/4{G}A3/4{d}B/4 | \
{g}A3/4a/4g3/4d/4{g}e3/4c/4{G}A3/4{d}B/4 | \
{g}G3/4{d}B/4g3/4e/4{g}d3/4e/4{g}d3/4{d}B/4 |
{gef}e{gf}ga3/4g/4{a}e3/4c/4 | | \
{g}G3/4a/4{g}a3/4g/4{a}e3/4A/4g3/4e/4 | \
a3/4g/4{a}e3/4A/4g3/4e/4{g}c3/4e/4 |
{g}((3d/2c/2B/2)G/2A/2B3/4d/4{g}e3/4d/4 | \
g3/4e/4{g}d3/4B/4{GAG}A2 :|
